assets/illustrations/multisize/16/ppsx.svg

<?xml version="1.0" encoding="utf-8"?>
<!-- Generator: Adobe Illustrator 21.1.0, SVG Export Plug-In . SVG Version: 6.00 Build 0)  -->
<svg version="1.1" xmlns="http://www.w3.org/2000/svg" xmlns:xlink="http://www.w3.org/1999/xlink" x="0px" y="0px"
	 viewBox="0 0 16 16" enable-background="new 0 0 16 16" xml:space="preserve">
<g id="TEMPLATE" display="none">
	<g display="inline">
		<path fill="#D0D0D0" d="M16,0v16H0V0H16 M17-1h-1H0h-1v1v16v1h1h16h1v-1V0V-1L17-1z"/>
	</g>
</g>
<g id="ICONS">
	<polygon fill="#FFFFFF" points="12,0 3,0 3,2 2,2 1,2 1,3 2,3 2,8 4,8 4,9 4,10 4,11 3,11 3,12 2,12 2,13 3,13 3,16 4,16 4,15 
		6,15 6,16 15,16 15,3 	"/>
	<path fill="#949494" d="M15,3l-3-3H3v3h1V1h7v3h3v11H6v1h9V3z M12,3V1.5L13.5,3H12z"/>
	<polygon fill="#D04727" points="5,12 4,12 4,11 3,11 3,12 2,12 2,13 3,13 3,16 4,16 4,13 5,13 	"/>
	<path fill="#808080" d="M9,2H8H3H2H1v1h1v5h3v1H4v1h3V9H6V8h3V3h1V2H9z M8,7H6H5H3V3h5V7z"/>
	<rect x="3" y="3" fill="#FFFFFF" width="5" height="4"/>
	<rect x="4" y="4" fill="#C8C8C8" width="1" height="2"/>
	<rect x="6" y="5" fill="#F5BA9D" width="1" height="1"/>
</g>
</svg>

<svg id="83b4a0b5-c68f-4237-8413-77d1d1c0d060" data-name="ICONS" xmlns="http://www.w3.org/2000/svg" viewBox="0 0 16 16"><title>FileTypeIcons_Master_All_NEW</title><polygon points="12 0 3 0 3 2 2 2 1 2 1 3 2 3 2 8 4 8 4 9 4 10 4 11 3 11 3 12 2 12 2 13 3 13 3 16 4 16 4 15 6 15 6 16 15 16 15 3 12 0" fill="#fff"/><path d="M15,3,12,0H3V3H4V1h7V4h3V15H6v1h9ZM12,3V1.5L13.5,3Z" fill="#949494"/><polygon points="5 12 4 12 4 11 3 11 3 12 2 12 2 13 3 13 3 16 4 16 4 13 5 13 5 12" fill="#d04727"/><path d="M9,2H1V3H2V8H5V9H4v1H7V9H6V8H9V3h1V2ZM8,7H3V3H8Z" fill="gray"/><rect x="3" y="3" width="5" height="4" fill="#fff"/><rect x="4" y="4" width="1" height="2" fill="#c8c8c8"/><rect x="6" y="5" width="1" height="1" fill="#f5ba9d"/></svg>
